src/svg/comment.svg

<svg xmlns="http://www.w3.org/2000/svg" width="1000" height="1000" viewBox="0 0 1000 1000"><path fill-rule="evenodd" clip-rule="evenodd" fill="#050505" d="M833.67 716.898h-125.287c.186 40.414.445 102.223-.188 116.561-2.043 47.025-41.602 101.404-141.482.371-8.432-8.543-77.521-83.686-111.545-116.932h-289.84c-36.328 0-65.783-29.455-65.783-65.781v-475.767c0-36.254 29.455-65.764 65.783-65.764h668.342c36.328 0 65.783 29.51 65.783 65.764v475.768c0 36.325-29.455 65.78-65.783 65.78zm-11.254-531.39h-645.834v456.99h334.451l121.426 127.666v-127.666h189.957v-456.99z"/></svg>

<?xml version="1.0" encoding="utf-8"?>
<!-- Generator: Adobe Illustrator 16.0.0, SVG Export Plug-In . SVG Version: 6.00 Build 0)  -->
<!DOCTYPE svg PUBLIC "-//W3C//DTD SVG 1.1//EN" "http://www.w3.org/Graphics/SVG/1.1/DTD/svg11.dtd">
<svg version="1.1" id="Layer_1" xmlns="http://www.w3.org/2000/svg" xmlns:xlink="http://www.w3.org/1999/xlink" x="0px" y="0px"
	 width="1000px" height="1000px" viewBox="0 0 1000 1000" enable-background="new 0 0 1000 1000" xml:space="preserve">
<path fill-rule="evenodd" clip-rule="evenodd" fill="#050505" d="M833.67,716.898H708.383c0.186,40.414,0.445,102.223-0.188,116.561
	c-2.043,47.025-41.602,101.404-141.482,0.371c-8.432-8.543-77.521-83.686-111.545-116.932h-289.84
	c-36.328,0-65.783-29.455-65.783-65.781V175.35c0-36.254,29.455-65.764,65.783-65.764H833.67c36.328,0,65.783,29.51,65.783,65.764
	v475.768C899.453,687.443,869.998,716.898,833.67,716.898L833.67,716.898z M822.416,185.508H176.582v456.99h334.451l121.426,127.666
	V642.498h189.957V185.508L822.416,185.508z"/>
</svg>
